X:1
T:Title
%%score ( 1 2 ) 3
L:1/8
Q:1/4=81
M:6/8
K:Ab
V:1 treble nm="Grand Piano"
V:2 treble 
V:3 bass nm="Grand Piano"
V:1
 [CE]>[DF][CE] [Ec][DB][CA] | [EB][EA][EB] [Ec]3 | [CE]>[CA][CA] [DG][DF][DG] | [CA]6 | %4
w: J.~H.~Rosecrans * * * * *||||
 [CE]>[DF][CE] [Ec][DB][CA] | [EB][EA][EB] [Ec]3 | [CE]>[CA][CA] [DG][DF][DG] | [CA]6 | [DB]DD D3 | %9
w: |||||
 [Ec]A-[CA-] [CA]3 | [Ec]>[DB][CA] [CE][CA][Ec] | [EB]6 | [Ec]A-[CA-] [CA]3 | [FA]F-[DF-] [DF]3 | %14
w: |||||
 [DE]>[DF][DE] [CA]<[CA][DG] | [CA]6 |] %16
w: ||
V:2
 x6 | x6 | x6 | x6 | x6 | x6 | x6 | x6 | z E2- E3 | z .C2 z3 | x6 | x6 | z .C2 z3 | z .D2 z3 | x6 | %15
 x6 |] %16
V:3
 [A,,A,]>[A,,A,][A,,A,] [A,,A,][A,,A,][A,,A,] | [E,G,][E,F,][E,G,] A,3 | %2
 [A,,A,]>[A,,A,][A,,A,] [E,B,][E,B,][E,B,] | [A,,A,]6 | %4
 [A,,A,]>[A,,A,][A,,A,] [A,,A,][A,,A,][A,,A,] | [E,G,][E,F,][E,G,] A,3 | %6
 [A,,A,]>[A,,A,][A,,A,] [E,B,][E,B,][E,B,] | [A,,A,]6 | [E,G,][E,G,][E,G,] [E,G,]3 | %9
 [A,,A,][A,,A,][A,,A,] [A,,A,]3 | [A,,A,]>[A,,A,][A,,A,] [A,,A,][A,,A,][A,,A,] | [E,G,]6 | %12
 [A,,A,][A,,A,][A,,A,] [A,,A,]3 | [D,A,][D,A,][D,A,] [D,A,]3 | [E,G,]>[E,G,][E,G,] E,<E,E, | %15
 [A,,E,]6 |] %16

